X:1
T:Salve Regina
T:Giovanni Battista Riccio
T:1620
T:Salve Regina
T:(C) Wim Looyestijn - 2015
T:(C) Wim Looyestijn - 2015
T:(C) Wim Looyestijn - 2015
T:(C) Wim Looyestijn - 2015
T:(C) Wim Looyestijn - 2015
T:(C) Wim Looyestijn - 2015
C:Giovanni Battista Riccio
Z:(C) Wim Looyestijn - 2015
%%score 1 2
L:1/8
Q:1/4=120
M:4/4
K:C
V:1 treble nm="MusicXML Part"
V:2 bass nm="MusicXML Part"
V:1
 B8- | B6 AG | A4 A4 | A2 AA A3 G | G3 G G4 | z8 | z8 | B8- | B6 AB | ^c4 c4 | ^c2 cc c3 B | %11
w: Sal-|* ve Re-|gi- na|Ma- ter mi- se- ri-|cor- di- e,|||sal-|* ve Re-|gi- na|Ma- ter mi- se- ri-|
 d3 d d4 | B8 | B4 c4 | d8 | G2 cB AAcB | A2 A2 G4 | F2 AB c2 A2 | Bc d4 ^c2 | d8 | z8 | %21
w: cor- di- ae:|vi-|ta dul-|ce-|do et spes no- stra, et spes|no- stra sal-|ve, et spes no- stra|sal- * * *|ve.||
 z2 d2 B2 B2 | c3 B A4 | G8 | G8 | ^G6 G2 | ^G8 | A8 | A4 B4 | c8 | B8 | c8 | ^c6 c2 | ^c8 | %34
w: Ad te cla-|ma- * *|mus,|e-|* xu-|les,|fil-|li- i|He-|vae,|e-|* xu-|les,|
 d6 AA | B4 B4 | z2 c2 A4 | z2 d2 B4 | z2 B2 z2 A2 | z2 G2 ^F G2 F | G4 z2 c2 | z2 B2 z2 A2 | %42
w: fi- li- i|He- vae.|Ad te,|ad te|su足 su足|spi- ra- * *|mus, su足|su足- spi-|
 ^G2 A4 G2 | A2 E2 ^F2 FF | G2 G2 z2 GF | EDEC D4 | C2 cB AGAF | G4 A4 | _B8 | !courtesy!=B4 B4 | %50
w: ra- * *|mus, ge- men- tes et|flen- tes in hac|la- cri- ma- rum val-|le, in hac la- cri- ma- rum|val- le.|E-|* ia|
 c8 | ^c8 | d2 AA A3 G | B4 B4 | c2 A2 G4 | FEFG A4 | GGAB c4 | BBcd e2 c2 | B6 B2 | A8 | z8 | z8 | %62
w: er-||go, ad- vo- ca- ta|no- stra,|il- los tu-|os mi- se- ri- cor-|des, mi- se- ri- cor-|des, mi- se- ri- cor- des|o- cu-|los|||
 z4 d4 | B4 c4 | A8 | G8 | z4 A4 | _B8 | A2 cB AAGG | FF E2 D2 dc | BcAB ^G A2 G | A2 AA A2 AA | %72
w: ad|nos con-|ver-|te.|Et|Je-|sum be- ne- dic- tum fruc- tum|ven- tris tu- i, be- ne|dic- tum fruc- tum ven- tris tu-|i, no- bis post hoc ex-|
 A3 A A3 G | B4 B2 d2 | B4 B2 d2 | B4 B2 G2 | A4 G2 G2 | A4 G4 | z GAB c4 | AABc d4 | BBcd e4 | %81
w: si- li- um os-|ten- de. O|cle- mens, o|cle- mens, o|pi- a, o|pi- a,|o dul- cis Vir-|go, o dul- cis Vir-|go, o- dul- cis Vir-|
 c2 c2 B4 | AEEE ^F4 | G2 A2 A4 | G16 |] %85
w: go Ma- ri-|a, o dul- cis Vir-|go Ma- ri-|a.|
V:2
 G,,8 | G,6 F,E, | D,4 D,4 | ^C,4 D,4 | G,,8 | C,2 C,C, C,3 B,, | D,3 D, D,4 | G,6 F,2 | %8
w: ||# *|6 *||* 6 * * *|||
 E,6 ^F,G, | A,4 A,4 | A,,8 | D,4 D,4 | G,8 | G,4 E,4 | D,8 | C,4 F,4 | F,2 F,2 C,4 | F,,8 | %18
w: |# #||||* 6|||||
 G,,4 A,,4 | D,2 D,2 B,,2 B,,2 | C,3 B,, A,,4 | G,,8 | C,4 D,4 | G,,8 | G,6 F,2 | E,6 E,2 | E,8 | %27
w: |||||||# *||
 ^C,8 | D,4 B,,4 | A,,8 | G,,8 | C,6 B,,2 | A,,6 A,,2 | A,,8 | D,4 ^F,4 | G,4 G,2 G,2 | %36
w: 6|||||# *||* 6||
 E,4 F,2 F,2 | D,4 G,2 G,2 | E,2 E,2 ^F,2 F,2 | G,2 G,2 D,4 | B,,4 C,2 C,2 | G,,2 G,,2 A,,2 A,,2 | %42
w: 6 * *|# * *|||6 * *||
 E,8 | ^C,4 D,4 | B,,8 | C,4 G,,4 | C,4 F,,4 | C,4 F,,4 | _B,,6 A,,2 | G,,4 G,,4 | C,6 B,,2 | %51
w: #|* #|6|||||# #||
 A,,8 | D,8 | G,,8 | C,2 F,2 C,4 | F,,C, D,E, F,4 | E,E, F,G, A,2 A,,2 | G,,G,, A,,B,, C,2 A,,2 | %58
w: #|||||||
 E,8 | A,,4 A,4 | ^F,4 G,4 | E,8 | D,4 D,4 | G,,4 C,4 | D,8 | G,,4 C,4 | F,,4 F,,4 | _B,,8 | %68
w: ||||||||||
 F,,6 C,2 | D,2 A,,2 D,4 | G,E,F,D, E,4 | A,,8 | ^C,4 D,4 | G,,8 | G,,8 | G,,8 | D,4 G,,4 | %77
w: ||* 6 * 6 *||6 *|||||
 D,4 G,,G,, A,,B,, | C,4 z C, D,E, | F,4 z D, E,F, | G,4 E,4 | A,2 A,2 E,4 | A,,4 D,4 | %83
w: |||||* #|
 B,,2 C,2 D,4 | G,,16 |] %85
w: 6 6 *||

